X:1
T:John Forbes Esq.
T:John Forbes Esq.
T:Alexander Walker
C:Alexander Walker
L:1/8
M:4/4
K:Emin
V:1 treble 
V:1
 F | B,>EF>D EE/E/ E2 | B>EG>E A>DF>D | B,>EF>D E<E B>e | d>BA>F E/E/E E :| f | g>eB>e E>e B>c | %7
 d>AF>A F>d B/A/G/F/ | g>ec>e E>e B>c | d>A B/A/G/F/ B<EE>f | e>fg>e f>de>B | d>fA>d F>d B/A/G/F/ | %12
 E>GF>A G>B A>e | d>B A>F E/E/E E || %14

